X:1
T: Ardclach
C:Alexander Walker
R:Reel
I:speed 232
Q:232
K:D
M:4/4
L:1/8
|:A|d2AG Fd AF|GE FD EB, B,A|d2 AG Fd AF|GE AC D2DA|
d2AG Fd AF|GE FD EB, B,A|de fd ga bg|fd ec d2dc'|
d'a fd cd AF|GB AF GE Ea|d'a da fa da|Be cA d2dc'|
d'a fd cd Ad|gb af be ec'|d'c' d'a bg eg|fd ec d2d:|
